X: 2
T: The Rattlin' Bog
R: polka
M: 2/4
L: 1/8
K: Gmaj
B2 B>A | GE E2 | DG G/F/G/A/ | BA Ad |B/c/B/A/ B>A | GE EG/E/ | Dd dB | AG G2 ||BG AG | BG G>A | Bd- dB | BA AG/A/ | BG AG | BG AG | B/c/d dB | AG G2 ||B2 B>A | GE ED | EA AB/A/ | GE ED |B>c BA | GE ED | EA AB/A/ | G2 :|BA AG | BA AG | A2 AB/A/ | GE ED | c/B/A AG | BA AG | A2 AB/A/ | G2 :|


Tune 583	Setting 583

